gnome/icons/Varda/apps/scalable/steam.svg

<?xml version="1.0" encoding="UTF-8" standalone="no"?>
<svg
   xmlns:dc="http://purl.org/dc/elements/1.1/"
   xmlns:cc="http://creativecommons.org/ns#"
   xmlns:rdf="http://www.w3.org/1999/02/22-rdf-syntax-ns#"
   xmlns:svg="http://www.w3.org/2000/svg"
   xmlns="http://www.w3.org/2000/svg"
   xmlns:sodipodi="http://sodipodi.sourceforge.net/DTD/sodipodi-0.dtd"
   xmlns:inkscape="http://www.inkscape.org/namespaces/inkscape"
   width="64px"
   height="64px"
   viewBox="0 0 64 64"
   version="1.1"
   id="svg35413"
   sodipodi:docname="steam.svg"
   inkscape:version="1.0.2 (e86c870879, 2021-01-15)">
  <metadata
     id="metadata35419">
    <rdf:RDF>
      <cc:Work
         rdf:about="">
        <dc:format>image/svg+xml</dc:format>
        <dc:type
           rdf:resource="http://purl.org/dc/dcmitype/StillImage" />
      </cc:Work>
    </rdf:RDF>
  </metadata>
  <defs
     id="defs35417" />
  <sodipodi:namedview
     pagecolor="#ffffff"
     bordercolor="#666666"
     borderopacity="1"
     objecttolerance="10"
     gridtolerance="10"
     guidetolerance="10"
     inkscape:pageopacity="0"
     inkscape:pageshadow="2"
     inkscape:window-width="2560"
     inkscape:window-height="1403"
     id="namedview35415"
     showgrid="false"
     inkscape:zoom="14.75"
     inkscape:cx="35.043231"
     inkscape:cy="28.949377"
     inkscape:window-x="0"
     inkscape:window-y="0"
     inkscape:window-maximized="1"
     inkscape:current-layer="surface1"
     inkscape:document-rotation="0" />
  <g
     id="surface1">
    <path
       style="fill:#0c0e11;fill-opacity:1;fill-rule:nonzero;stroke:none"
       d="m 31.75,3.144531 c 16.074219,0 29.105469,13.03125 29.105469,29.105469 0,16.074219 -13.03125,29.105469 -29.105469,29.105469 C 15.675781,61.355469 2.644531,48.324219 2.644531,32.25 2.644531,16.175781 15.675781,3.144531 31.75,3.144531 Z m 0,0"
       id="path35408" />
    <path
       style="fill:#d0ebee;fill-opacity:1;fill-rule:nonzero;stroke:none"
       d="m 40.480469,15.082031 c -5.585938,0 -10.113281,4.527344 -10.113281,10.113281 v 0.0039 l -6.683594,9.164062 c -0.296875,-0.03906 -0.597656,-0.0625 -0.898438,-0.06641 -1.871094,0.0039 -3.675781,0.699219 -5.066406,1.953125 L 2.671875,31 c -0.015625,0.414062 -0.027344,0.832031 -0.027344,1.25 0,1.730469 0.152344,3.425781 0.4375,5.070312 l 12.121094,4.457032 c -0.0039,0.03516 -0.0039,0.07031 -0.0039,0.105468 0,4.191407 3.394531,7.585938 7.585937,7.585938 4.1875,0 7.582032,-3.394531 7.582032,-7.585938 0,-0.125 -0.0078,-0.25 -0.01563,-0.371093 l 8.554688,-6.332031 c 0.523438,0.08594 1.046875,0.128906 1.574219,0.128906 5.585937,0 10.113281,-4.527344 10.113281,-10.113282 0,-5.585937 -4.527344,-10.113281 -10.113281,-10.113281 z m 0,3.035157 c 3.910156,0 7.082031,3.167968 7.082031,7.078124 0,3.910157 -3.171875,7.082032 -7.082031,7.082032 -3.910157,0 -7.078125,-3.171875 -7.078125,-7.082032 0,-3.910156 3.167968,-7.078124 7.078125,-7.078124 z m 0,2.023437 c -2.792969,0 -5.054688,2.261719 -5.054688,5.054687 0,2.792969 2.261719,5.058594 5.054688,5.058594 2.792969,0 5.058593,-2.265625 5.058593,-5.058594 0,-2.792968 -2.265624,-5.054687 -5.058593,-5.054687 z M 22.785156,37.332031 c 2.511719,0 4.550782,2.039063 4.550782,4.550781 0,2.515626 -2.039063,4.550782 -4.550782,4.550782 -2.058594,0 -3.859375,-1.378906 -4.394531,-3.363282 l 2.753906,1.117188 c 1.558594,0.632812 3.320313,-0.113281 3.953125,-1.671875 0.632813,-1.558594 -0.113281,-3.320313 -1.671875,-3.953125 l -2.277343,-0.921875 c 0.519531,-0.203125 1.074218,-0.308594 1.636718,-0.308594 z m 0,0"
       id="path35410" />
  </g>
</svg>

<?xml version="1.0" encoding="UTF-8" standalone="no"?>
<svg
   xmlns:dc="http://purl.org/dc/elements/1.1/"
   xmlns:cc="http://creativecommons.org/ns#"
   xmlns:rdf="http://www.w3.org/1999/02/22-rdf-syntax-ns#"
   xmlns:svg="http://www.w3.org/2000/svg"
   xmlns="http://www.w3.org/2000/svg"
   xmlns:sodipodi="http://sodipodi.sourceforge.net/DTD/sodipodi-0.dtd"
   xmlns:inkscape="http://www.inkscape.org/namespaces/inkscape"
   width="64px"
   height="64px"
   viewBox="0 0 64 64"
   version="1.1"
   id="svg35413"
   sodipodi:docname="steam.svg"
   inkscape:version="0.92.4 (fd57863, 2020-04-02)">
  <metadata
     id="metadata35419">
    <rdf:RDF>
      <cc:Work
         rdf:about="">
        <dc:format>image/svg+xml</dc:format>
        <dc:type
           rdf:resource="http://purl.org/dc/dcmitype/StillImage" />
      </cc:Work>
    </rdf:RDF>
  </metadata>
  <defs
     id="defs35417" />
  <sodipodi:namedview
     pagecolor="#ffffff"
     bordercolor="#666666"
     borderopacity="1"
     objecttolerance="10"
     gridtolerance="10"
     guidetolerance="10"
     inkscape:pageopacity="0"
     inkscape:pageshadow="2"
     inkscape:window-width="726"
     inkscape:window-height="480"
     id="namedview35415"
     showgrid="false"
     inkscape:zoom="3.6875"
     inkscape:cx="32"
     inkscape:cy="32"
     inkscape:window-x="1101"
     inkscape:window-y="381"
     inkscape:window-maximized="0"
     inkscape:current-layer="svg35413" />
  <g
     id="surface1">
    <path
       style="stroke:none;fill-rule:nonzero;fill:#3f485e;fill-opacity:1"
       d="M 31.75 3.144531 C 47.824219 3.144531 60.855469 16.175781 60.855469 32.25 C 60.855469 48.324219 47.824219 61.355469 31.75 61.355469 C 15.675781 61.355469 2.644531 48.324219 2.644531 32.25 C 2.644531 16.175781 15.675781 3.144531 31.75 3.144531 Z M 31.75 3.144531 "
       id="path35408" />
    <path
       style=" stroke:none;fill-rule:nonzero;fill:rgb(93.333334%,93.333334%,93.333334%);fill-opacity:1;"
       d="M 40.480469 15.082031 C 34.894531 15.082031 30.367188 19.609375 30.367188 25.195312 L 30.367188 25.199219 L 23.683594 34.363281 C 23.386719 34.324219 23.085938 34.300781 22.785156 34.296875 C 20.914062 34.300781 19.109375 34.996094 17.71875 36.25 L 2.671875 31 C 2.65625 31.414062 2.644531 31.832031 2.644531 32.25 C 2.644531 33.980469 2.796875 35.675781 3.082031 37.320312 L 15.203125 41.777344 C 15.199219 41.8125 15.199219 41.847656 15.199219 41.882812 C 15.199219 46.074219 18.59375 49.46875 22.785156 49.46875 C 26.972656 49.46875 30.367188 46.074219 30.367188 41.882812 C 30.367188 41.757812 30.359375 41.632812 30.351562 41.511719 L 38.90625 35.179688 C 39.429688 35.265625 39.953125 35.308594 40.480469 35.308594 C 46.066406 35.308594 50.59375 30.78125 50.59375 25.195312 C 50.59375 19.609375 46.066406 15.082031 40.480469 15.082031 Z M 40.480469 18.117188 C 44.390625 18.117188 47.5625 21.285156 47.5625 25.195312 C 47.5625 29.105469 44.390625 32.277344 40.480469 32.277344 C 36.570312 32.277344 33.402344 29.105469 33.402344 25.195312 C 33.402344 21.285156 36.570312 18.117188 40.480469 18.117188 Z M 40.480469 20.140625 C 37.6875 20.140625 35.425781 22.402344 35.425781 25.195312 C 35.425781 27.988281 37.6875 30.253906 40.480469 30.253906 C 43.273438 30.253906 45.539062 27.988281 45.539062 25.195312 C 45.539062 22.402344 43.273438 20.140625 40.480469 20.140625 Z M 22.785156 37.332031 C 25.296875 37.332031 27.335938 39.371094 27.335938 41.882812 C 27.335938 44.398438 25.296875 46.433594 22.785156 46.433594 C 20.726562 46.433594 18.925781 45.054688 18.390625 43.070312 L 21.144531 44.1875 C 22.703125 44.820312 24.464844 44.074219 25.097656 42.515625 C 25.730469 40.957031 24.984375 39.195312 23.425781 38.5625 L 21.148438 37.640625 C 21.667969 37.4375 22.222656 37.332031 22.785156 37.332031 Z M 22.785156 37.332031 "
       id="path35410" />
  </g>
</svg>
